static/images/logos/trusted-by/apple.svg

<svg xmlns="http://www.w3.org/2000/svg" width="42" height="48" viewBox="0 0 42 48" fill="none">
    <mask id="mask0_1895_40400" style="mask-type:luminance" maskUnits="userSpaceOnUse" x="0" y="0" width="42" height="48">
        <path d="M41.7411 0H0V47.9558H41.7411V0Z" fill="white"/>
    </mask>
    <g mask="url(#mask0_1895_40400)">
        <path d="M34.8005 46.0365C32.1136 48.5589 29.1491 48.1659 26.3234 46.9763C23.3192 45.7631 20.5728 45.6865 17.4001 46.9763C13.449 48.6261 11.3521 48.1466 8.97253 46.0365C-4.46196 32.6568 -2.47901 12.2756 12.7897 11.5083C16.4929 11.7001 19.0856 13.4889 21.2668 13.6376C24.509 12.9997 27.6123 11.1726 31.0824 11.4124C35.2514 11.7385 38.3698 13.3306 40.4519 16.1936C31.8756 21.181 33.9081 32.1149 41.7855 35.1842C40.2088 39.1885 38.1863 43.1448 34.7956 46.0701L34.8005 46.0365ZM20.9694 11.3644C20.5678 5.41793 25.55 0.526433 31.2807 0.046875C32.069 6.90456 24.8361 12.0358 20.9694 11.3644Z" fill="#ADADB0"/>
    </g>
</svg>

<svg xmlns="http://www.w3.org/2000/svg" width="42" height="48" fill="none"><mask id="a" width="42" height="48" x="0" y="0" maskUnits="userSpaceOnUse" style="mask-type:luminance"><path fill="#fff" d="M41.741 0H0v47.956h41.741V0Z"/></mask><g mask="url(#a)"><path fill="#ADADB0" d="M34.8 46.036c-2.686 2.523-5.65 2.13-8.477.94-3.004-1.213-5.75-1.29-8.923 0-3.951 1.65-6.048 1.17-8.427-.94-13.435-13.38-11.452-33.76 3.817-34.528 3.703.192 6.296 1.98 8.477 2.13 3.242-.638 6.345-2.465 9.815-2.226 4.17.326 7.288 1.919 9.37 4.782-8.576 4.987-6.544 15.92 1.334 18.99-1.577 4.005-3.6 7.96-6.99 10.886l.005-.034ZM20.97 11.364C20.567 5.418 25.55.526 31.28.047c.789 6.858-6.444 11.989-10.31 11.317Z"/></g></svg>
